brandFactory_export/2.Regular/Emergencia_Cruz_Salud_2Regular.svg

<?xml version="1.0" encoding="UTF-8"?>
<svg width="24px" height="24px" viewBox="0 0 24 24" version="1.1" xmlns="http://www.w3.org/2000/svg" xmlns:xlink="http://www.w3.org/1999/xlink">
    <title>2.Regular/Emergencia_Cruz_Salud_2Regular</title>
    <g id="Symbols" stroke="none" stroke-width="1" fill="none" fill-rule="evenodd">
        <g id="2.Regular/Emergencia_Cruz_Salud_2Regular" fill="#5CB615" fill-rule="nonzero">
            <path d="M21.7579832,14.4436975 L15.2067227,14.4470588 C15.0151261,14.4470588 14.8302521,14.5243697 14.6957983,14.6588235 C14.5613445,14.7932773 14.4840336,14.9781513 14.4840336,15.1697479 L14.487395,21.7243697 C14.487395,21.9764706 14.3260504,22.1579832 14.2756303,22.1781513 L9.43865546,22.1781513 C9.37142857,22.1579832 9.21344538,21.9764706 9.21344538,21.7243697 L9.21008403,15.1731092 C9.21008403,14.9815126 9.13277311,14.7966387 8.99831933,14.6621849 C8.86386555,14.5277311 8.6789916,14.4504202 8.48739496,14.4504202 L1.93277311,14.4537815 C1.68403361,14.4537815 1.49915966,14.292437 1.48235294,14.2453782 L1.48235294,9.40504202 C1.50252101,9.34117647 1.68739496,9.17983193 1.93613445,9.17983193 L8.48403361,9.17647059 C8.88403361,9.17647059 9.20672269,8.85378151 9.20672269,8.45378151 L9.20336134,1.89915966 C9.20336134,1.67394958 9.37142857,1.46890756 9.41512605,1.44537815 L14.2352941,1.44201681 C14.3092437,1.46554622 14.4773109,1.67058824 14.4773109,1.89579832 L14.4806723,8.44369748 C14.4806723,8.63529412 14.5579832,8.82016807 14.692437,8.95462185 C14.8268908,9.08907563 15.0117647,9.16638655 15.2033613,9.16638655 L21.7613445,9.16302521 C21.9865546,9.16302521 22.1915966,9.33109244 22.2151261,9.37478992 L22.2184874,14.194958 C22.1882353,14.2722689 21.9831933,14.4436975 21.7579832,14.4436975 M21.7579832,7.72436975 L15.9260504,7.72773109 L15.9226891,1.90252101 C15.9226891,0.91092437 15.1327731,0.00336134454 14.2655462,0.00336134454 L9.41176471,0.00336134454 C8.54453782,0.00336134454 7.75462185,0.907563025 7.75462185,1.90252101 L7.75798319,7.73445378 L1.93277311,7.73781513 C0.904201681,7.73781513 0.0336134454,8.49747899 0.0336134454,9.39495798 L0.0302521008,14.2487395 C0.0302521008,15.1462185 0.897478992,15.9058824 1.92941176,15.9058824 L7.76134454,15.902521 L7.76470588,21.7310924 C7.76470588,22.7596639 8.52436975,23.6302521 9.42184874,23.6302521 L14.2756303,23.6302521 C15.1731092,23.6302521 15.9327731,22.7596639 15.9327731,21.7310924 L15.9294118,15.8991597 L21.7579832,15.8957983 C22.7495798,15.8957983 23.6571429,15.1058824 23.6571429,14.2386555 L23.6571429,9.38487395 C23.6571429,8.51428571 22.7529412,7.72436975 21.7579832,7.72436975" id="Emergencia_Cruz_Salud_2Regular"></path>
        </g>
    </g>
</svg>

<svg width="24" height="24" viewBox="0 0 24 24" xmlns="http://www.w3.org/2000/svg"><path d="M21.758 14.444l-6.551.003a.725.725 0 00-.723.723l.003 6.554c0 .252-.16.434-.211.454H9.439c-.068-.02-.226-.202-.226-.454l-.003-6.55a.725.725 0 00-.723-.724l-6.554.004c-.249 0-.434-.162-.45-.209v-4.84c.02-.064.204-.225.453-.225l6.548-.004c.4 0 .723-.322.723-.722l-.004-6.555c0-.225.168-.43.212-.454l4.82-.003c.074.024.242.229.242.454l.004 6.548a.725.725 0 00.722.722l6.558-.003c.226 0 .43.168.454.212l.003 4.82c-.03.077-.235.249-.46.249m0-6.72l-5.832.004-.003-5.825c0-.992-.79-1.9-1.657-1.9H9.412c-.867 0-1.657.905-1.657 1.9l.003 5.831-5.825.004c-1.029 0-1.9.76-1.9 1.657L.03 14.249c0 .897.867 1.657 1.9 1.657l5.831-.003.004 5.828c0 1.029.76 1.9 1.657 1.9h4.854c.897 0 1.657-.871 1.657-1.9l-.004-5.832 5.829-.003c.992 0 1.9-.79 1.9-1.657V9.385c0-.87-.905-1.66-1.9-1.66" fill="#5CB615" fill-rule="nonzero"/></svg>
